X:1
T: Colin Campbell
C:
R:Strathspey
Q: 128
K:G
M:4/4
L:1/16
|:e2|dB3 B3e dB3 B3e|dB3 B3d e4-e3g|dB3 B3e dB3 B3c|d3e dB3 A6e2|
dB3 B3e dB3 B3e|dB3 B3d e4-e3g|dB3 B3e dB3 B3c|d3e dB3 A6d2|
d3e g3a bg3 eg3|d3e g3a b4 a3g|d3e g3a bg3 eg3|dB3 B3G A6d2|
d3e g3a bg3 eg3|d3e g3a b4 a3g|d3e g3a bg3 eg3|dB3 A3B G6:|
